images/lucy/lucyglow.svg

<svg xmlns="http://www.w3.org/2000/svg" width="1408" height="1351" fill="none"><g filter="url(#a)"><path fill="#FFD3E6" d="M618.988 99.32c37.112-65.76 131.927-65.76 169.038 0l142.087 251.778a97.014 97.014 0 0 0 65.33 47.407l283.657 57.163c74.09 14.93 103.39 104.994 52.24 160.567l-195.85 212.77a96.821 96.821 0 0 0-24.95 76.706l33.22 287.109c8.68 74.99-68.03 130.65-136.75 99.23l-263.126-120.28a97.129 97.129 0 0 0-80.753 0l-263.124 120.28c-68.724 31.42-145.432-24.24-136.754-99.23l33.222-287.109a96.825 96.825 0 0 0-24.954-76.706L75.679 616.235c-51.151-55.573-21.852-145.637 52.236-160.567l283.657-57.163a97.01 97.01 0 0 0 65.329-47.407L618.988 99.321Z"/><path stroke="#FFA5E6" stroke-width="50" d="m766.254 111.608 142.087 251.777c17.418 30.865 47.412 52.624 82.163 59.627l283.656 57.164c55.02 11.088 76.71 77.92 38.78 119.128L1117.1 812.075a121.779 121.779 0 0 0-31.39 96.51l33.22 287.105c6.43 55.59-50.46 96.97-101.53 73.63l-263.123-120.28a122.106 122.106 0 0 0-101.539 0l-263.124 120.28c-51.07 23.34-107.959-18.04-101.527-73.63l33.223-287.105a121.828 121.828 0 0 0-31.394-96.51L94.074 599.304c-37.93-41.209-16.243-108.04 38.78-119.128l283.656-57.164c34.752-7.003 64.746-28.762 82.164-59.627l142.087-251.777c27.545-48.81 97.948-48.81 125.493 0Z"/></g><path fill="#FFD3E6" stroke="#FFA5E6" stroke-width="50" d="m766.254 111.608 142.087 251.777c17.418 30.865 47.412 52.624 82.163 59.627l283.656 57.163c55.02 11.089 76.71 77.92 38.78 119.129l-195.84 212.77a121.781 121.781 0 0 0-31.39 96.51l33.22 287.106c6.43 55.59-50.46 96.97-101.53 73.63l-263.123-120.28a122.106 122.106 0 0 0-101.539 0l-263.124 120.28c-51.07 23.34-107.959-18.04-101.527-73.63l33.223-287.106a121.83 121.83 0 0 0-31.394-96.51L94.074 599.304c-37.93-41.209-16.243-108.04 38.78-119.129l283.656-57.163c34.752-7.003 64.746-28.762 82.164-59.627l142.087-251.777c27.545-48.81 97.948-48.81 125.493 0Z"/><circle cx="493.452" cy="708.175" r="51.347" fill="#9F57A5"/><circle cx="913.563" cy="708.175" r="51.347" fill="#9F57A5"/><path stroke="#B773B3" stroke-linecap="round" stroke-width="50" d="M744.07 800.704a42.011 42.011 0 0 1-82.407-.188"/><defs><filter id="a" width="1407.01" height="1351" x="0" y="0" color-interpolation-filters="sRGB" filterUnits="userSpaceOnUse"><feFlood flood-opacity="0" result="BackgroundImageFix"/><feColorMatrix in="SourceAlpha" result="hardAlpha" values="0 0 0 0 0 0 0 0 0 0 0 0 0 0 0 0 0 0 127 0"/><feOffset/><feGaussianBlur stdDeviation="25"/><feComposite in2="hardAlpha" operator="out"/><feColorMatrix values="0 0 0 0 1 0 0 0 0 0.433333 0 0 0 0 0.841334 0 0 0 1 0"/><feBlend in2="BackgroundImageFix" result="effect1_dropShadow_88_323"/><feBlend in="SourceGraphic" in2="effect1_dropShadow_88_323" result="shape"/></filter></defs></svg>

<svg width="1408" height="1351" viewBox="0 0 1408 1351" fill="none" xmlns="http://www.w3.org/2000/svg">
<g filter="url(#filter0_d_88_323)">
<path d="M618.988 99.3209C656.1 33.5598 750.915 33.5597 788.026 99.3208L930.113 351.098C943.958 375.631 967.804 392.935 995.443 398.505L1279.1 455.668C1353.19 470.598 1382.49 560.662 1331.34 616.235L1135.49 829.005C1116.41 849.737 1107.3 877.735 1110.54 905.711L1143.76 1192.82C1152.44 1267.81 1075.73 1323.47 1007.01 1292.05L743.884 1171.77C718.245 1160.05 688.77 1160.05 663.131 1171.77L400.007 1292.05C331.283 1323.47 254.575 1267.81 263.253 1192.82L296.475 905.711C299.712 877.735 290.604 849.738 271.521 829.005L75.6793 616.235C24.5279 560.662 53.8273 470.598 127.915 455.668L411.572 398.505C439.211 392.935 463.057 375.631 476.901 351.098L618.988 99.3209Z" fill="#FFD3E6"/>
<path d="M766.254 111.608L908.341 363.385C925.759 394.25 955.753 416.009 990.504 423.012L1274.16 480.176C1329.18 491.264 1350.87 558.096 1312.94 599.304L1117.1 812.075C1093.09 838.154 1081.63 873.381 1085.71 908.585L1118.93 1195.69C1125.36 1251.28 1068.47 1292.66 1017.4 1269.32L754.277 1149.04C722.038 1134.3 684.977 1134.3 652.738 1149.04L389.614 1269.32C338.544 1292.66 281.655 1251.28 288.087 1195.69L321.31 908.585C325.383 873.381 313.92 838.154 289.916 812.075L94.0736 599.304C56.1432 558.095 77.8306 491.264 132.854 480.176L416.51 423.012C451.262 416.009 481.256 394.25 498.674 363.385L640.761 111.608C668.306 62.7974 738.709 62.7974 766.254 111.608Z" stroke="#FFA5E6" stroke-width="50"/>
</g>
<path d="M766.254 111.608L908.341 363.385C925.759 394.25 955.753 416.009 990.504 423.012L1274.16 480.175C1329.18 491.264 1350.87 558.095 1312.94 599.304L1117.1 812.074C1093.09 838.154 1081.63 873.381 1085.71 908.584L1118.93 1195.69C1125.36 1251.28 1068.47 1292.66 1017.4 1269.32L754.277 1149.04C722.038 1134.3 684.977 1134.3 652.738 1149.04L389.614 1269.32C338.544 1292.66 281.655 1251.28 288.087 1195.69L321.31 908.584C325.383 873.381 313.92 838.154 289.916 812.074L94.0736 599.304C56.1432 558.095 77.8306 491.264 132.854 480.175L416.51 423.012C451.262 416.009 481.256 394.25 498.674 363.385L640.761 111.608C668.306 62.7974 738.709 62.7974 766.254 111.608Z" fill="#FFD3E6" stroke="#FFA5E6" stroke-width="50"/>
<circle cx="493.452" cy="708.175" r="51.347" fill="#9F57A5"/>
<circle cx="913.563" cy="708.175" r="51.347" fill="#9F57A5"/>
<path d="M744.07 800.704C742.982 806.112 740.838 811.254 737.763 815.834C734.687 820.414 730.74 824.344 726.146 827.398C721.551 830.453 716.401 832.573 710.987 833.637C705.574 834.7 700.004 834.688 694.595 833.599C689.187 832.51 684.046 830.367 679.465 827.292C674.885 824.216 670.956 820.269 667.901 815.674C664.846 811.08 662.727 805.929 661.663 800.516" stroke="#B773B3" stroke-width="50" stroke-linecap="round"/>
<defs>
<filter id="filter0_d_88_323" x="0" y="0" width="1407.01" height="1351" filterUnits="userSpaceOnUse" color-interpolation-filters="sRGB">
<feFlood flood-opacity="0" result="BackgroundImageFix"/>
<feColorMatrix in="SourceAlpha" type="matrix" values="0 0 0 0 0 0 0 0 0 0 0 0 0 0 0 0 0 0 127 0" result="hardAlpha"/>
<feOffset/>
<feGaussianBlur stdDeviation="25"/>
<feComposite in2="hardAlpha" operator="out"/>
<feColorMatrix type="matrix" values="0 0 0 0 1 0 0 0 0 0.433333 0 0 0 0 0.841334 0 0 0 1 0"/>
<feBlend mode="normal" in2="BackgroundImageFix" result="effect1_dropShadow_88_323"/>
<feBlend mode="normal" in="SourceGraphic" in2="effect1_dropShadow_88_323" result="shape"/>
</filter>
</defs>
</svg>
